X:5
T:Boyne water
R:march (4/4)
S:Roger Luckwill who got it off
M:2/2
L:1/8
K:D
(3 ABc|d2 e2 d2 cB|AG FE D2 Bc|d2 e2 d3 e|f2 d2 B3 c|
d2 e2 d2 cB|AG FE D2 EF|G2 FE B2 A2| E4 E4||
F2 D2 E2 C2|D2 D2 D2 EG|F2 D2 D2 EG|F2 D2 D2 EF|
GF EG FE DF|E2 E2 A3 G|FE DF E2 C2|D3 |]
